X: 1
T: Dance By The Old Sally Tree, The
M: 6/8
L: 1/8
R: jig
K: Amaj
|:Ace ecB|A2B cEF|=GFE C2D|Ecd BcB|
Ace ecB|A2B cEF|=GFE C2D|EAA A2A:|
|:Ace e2f|=gec ded|c2A Bec|ABG Ecd|
e2c dBA| GAB dEF|=GFE C2D|EAA A2A:|
